X:18
T:Beat the Reaper
M:C
C:© Paul Gitlitz 2007
R:Reel
K:F
e|"F"f2fa "C"gfe2|"F"fefa "C"gfe2|"F"f2fa "Gm"gfed|"C"c6de|!
"F"f2fa "C"gfe2|"F"fefa "C"gfe2|"Bb"b2a2 "C"gfe2|1"F"f6c:|2"F"f6DE|!
|:"F"F2cF "Dm"FdFF|"F"cFFd "Dm"FFc2|"F"f2fa "Gm"gfed|"C"c6DE|!
"F"F2cF "Dm"FdFF|"F"cFFd "Dm"FFc2|"Bb"b2a2 "C"gfe2|"F"f6z2:|]
